X:920
T:Irish waltz
R:Waltz
S:Various Web ABCs
Z:Transcription:??, chords:Mike Long
M:3/4
L:1/8
K:G
EE|\
"Am"E2 A2 AB|c3 d ec|"G"dB G3 B|"D"AF D3 D|\
"Am"E2 A2 AB|cd e2 cA|"G"dB G3 B|"Am"A4:|
|:eg|\
"Am"a2 ag ea|"C"g2 e2 cd|"C"ef g2 fe|"G"dB G2 =F2|\
"Am"E2 ABcd|"C"e2 c3 A|"G"dB G3 G|"Am"A4:|
